library/css/icons/svgs/fi-comment-video.svg

<svg xmlns="http://www.w3.org/2000/svg" width="100" height="100" viewBox="0 0 100 100"><path d="M88.466 16.936c-.172-1.703-1.592-3.036-3.34-3.036h-70.345v.009c-1.705.047-3.078 1.355-3.247 3.027h-.034v56.342h.068c.305 1.512 1.622 2.649 3.213 2.694v.009h11.565v6.744c0 1.864 1.51 3.374 3.374 3.374 1.166 0 2.193-.591 2.799-1.491l8.628-8.628h43.98c1.634 0 2.995-1.161 3.306-2.703h.067v-56.341h-.034zm-17.492 40.239l-12.694-6.003v5.653c0 1.335-1.093 2.426-2.428 2.426h-21.478c-1.334 0-2.427-1.091-2.427-2.426v-23.435c0-1.335 1.093-2.425 2.427-2.425h21.478c1.334 0 2.428 1.09 2.428 2.425v5.503l12.694-5.948v24.23z"/></svg>

<?xml version="1.0" encoding="utf-8"?>
<!-- Generator: Adobe Illustrator 17.0.0, SVG Export Plug-In . SVG Version: 6.00 Build 0)  -->
<!DOCTYPE svg PUBLIC "-//W3C//DTD SVG 1.1//EN" "http://www.w3.org/Graphics/SVG/1.1/DTD/svg11.dtd">
<svg version="1.1" id="Layer_1" xmlns="http://www.w3.org/2000/svg" xmlns:xlink="http://www.w3.org/1999/xlink" x="0px" y="0px"
	 width="100px" height="100px" viewBox="0 0 100 100" enable-background="new 0 0 100 100" xml:space="preserve">
<g>
	<path d="M88.466,16.936c-0.172-1.703-1.592-3.036-3.34-3.036H14.781v0.009c-1.705,0.047-3.078,1.355-3.247,3.027H11.5v56.342h0.068
		c0.305,1.512,1.622,2.649,3.213,2.694v0.009h11.565v6.744c0,1.864,1.51,3.374,3.374,3.374c1.166,0,2.193-0.591,2.799-1.491
		l8.628-8.628h43.98c1.634,0,2.995-1.161,3.306-2.703H88.5V16.936H88.466z M70.974,57.175l-12.694-6.003v5.653
		c0,1.335-1.093,2.426-2.428,2.426H34.374c-1.334,0-2.427-1.091-2.427-2.426V33.39c0-1.335,1.093-2.425,2.427-2.425h21.478
		c1.334,0,2.428,1.09,2.428,2.425v5.503l12.694-5.948V57.175z"/>
</g>
</svg>
